svg/speed.svg

<?xml version="1.0" encoding="UTF-8"?>
<svg xmlns="http://www.w3.org/2000/svg" xmlns:xlink="http://www.w3.org/1999/xlink" width="32" height="32" viewBox="0 0 32 32">
<path fill-rule="nonzero" fill="rgb(0%, 0%, 0%)" fill-opacity="1" d="M 16 4.480469 C 7.882812 4.480469 1.28125 11.082031 1.28125 19.199219 C 1.28125 21.398438 1.71875 23.390625 2.59375 25.261719 C 2.636719 25.347656 2.675781 25.433594 2.71875 25.519531 C 2.777344 25.636719 2.835938 25.757812 2.898438 25.875 C 3.136719 26.335938 3.386719 26.792969 3.675781 27.230469 C 3.792969 27.410156 3.992188 27.519531 4.210938 27.519531 L 27.789062 27.519531 C 28.007812 27.519531 28.207031 27.410156 28.324219 27.230469 C 28.613281 26.792969 28.863281 26.335938 29.101562 25.875 C 29.164062 25.757812 29.222656 25.636719 29.28125 25.519531 C 29.324219 25.433594 29.363281 25.347656 29.40625 25.261719 C 30.28125 23.390625 30.71875 21.398438 30.71875 19.199219 C 30.71875 11.082031 24.117188 4.480469 16 4.480469 M 19.839844 24.960938 L 12.160156 24.960938 C 11.820312 24.941406 11.554688 24.660156 11.554688 24.320312 C 11.554688 23.980469 11.820312 23.699219 12.160156 23.679688 L 19.839844 23.679688 C 20.179688 23.699219 20.445312 23.980469 20.445312 24.320312 C 20.445312 24.660156 20.179688 24.941406 19.839844 24.960938 M 23.253906 15.683594 L 17.277344 19.1875 C 17.277344 19.191406 17.28125 19.195312 17.28125 19.199219 C 17.253906 19.886719 16.6875 20.429688 16 20.429688 C 15.3125 20.429688 14.746094 19.886719 14.71875 19.199219 C 14.71875 18.746094 14.960938 18.328125 15.351562 18.097656 C 15.742188 17.871094 16.226562 17.867188 16.621094 18.085938 L 22.601562 14.582031 C 22.90625 14.402344 23.300781 14.503906 23.480469 14.808594 C 23.566406 14.953125 23.589844 15.128906 23.550781 15.292969 C 23.507812 15.457031 23.398438 15.597656 23.253906 15.683594 M 27.628906 25.921875 C 27.511719 26.117188 27.300781 26.238281 27.074219 26.238281 C 27.042969 26.238281 27.011719 26.234375 26.980469 26.226562 C 26.945312 26.234375 26.914062 26.238281 26.878906 26.238281 C 26.753906 26.238281 26.628906 26.199219 26.523438 26.132812 L 24.605469 24.851562 C 24.460938 24.757812 24.363281 24.613281 24.328125 24.445312 C 24.296875 24.28125 24.332031 24.105469 24.425781 23.964844 C 24.519531 23.824219 24.667969 23.722656 24.832031 23.691406 C 25 23.660156 25.175781 23.695312 25.316406 23.789062 L 26.792969 24.773438 C 26.800781 24.757812 26.808594 24.742188 26.816406 24.730469 C 26.816406 24.691406 26.816406 24.65625 26.84375 24.664062 L 26.851562 24.664062 C 27.609375 23.160156 28.046875 21.519531 28.140625 19.839844 L 26.238281 19.839844 C 25.882812 19.839844 25.597656 19.554688 25.597656 19.199219 C 25.597656 18.847656 25.882812 18.558594 26.238281 18.558594 L 28.128906 18.558594 C 28.042969 16.886719 27.609375 15.253906 26.859375 13.757812 C 26.84375 13.730469 26.820312 13.707031 26.804688 13.675781 L 25.296875 14.605469 C 25.152344 14.695312 24.976562 14.722656 24.8125 14.683594 C 24.644531 14.640625 24.503906 14.539062 24.414062 14.390625 C 24.230469 14.089844 24.324219 13.695312 24.625 13.511719 L 26.164062 12.570312 C 26.121094 12.5 26.078125 12.425781 26.039062 12.351562 C 25.082031 10.953125 23.84375 9.773438 22.402344 8.882812 C 22.378906 8.867188 22.347656 8.851562 22.324219 8.835938 L 21.398438 10.511719 C 21.226562 10.816406 20.839844 10.929688 20.53125 10.761719 C 20.382812 10.679688 20.269531 10.542969 20.222656 10.378906 C 20.175781 10.214844 20.199219 10.039062 20.28125 9.890625 L 21.199219 8.226562 L 21.152344 8.203125 C 19.734375 7.535156 18.203125 7.152344 16.636719 7.074219 L 16.636719 8.960938 C 16.636719 9.316406 16.351562 9.601562 15.996094 9.601562 C 15.644531 9.601562 15.359375 9.3125 15.359375 8.960938 L 15.359375 7.074219 C 13.613281 7.164062 11.96875 7.621094 10.492188 8.371094 C 10.441406 8.40625 10.386719 8.4375 10.332031 8.464844 L 11.316406 10.058594 C 11.4375 10.253906 11.445312 10.503906 11.332031 10.707031 C 11.21875 10.90625 11.003906 11.03125 10.773438 11.03125 C 10.550781 11.03125 10.34375 10.917969 10.226562 10.730469 L 9.234375 9.121094 C 9.191406 9.148438 9.144531 9.171875 9.101562 9.199219 C 7.707031 10.167969 6.527344 11.414062 5.640625 12.863281 L 7.238281 13.730469 C 7.546875 13.898438 7.664062 14.285156 7.496094 14.597656 C 7.328125 14.90625 6.9375 15.023438 6.628906 14.855469 L 5.03125 13.988281 C 4.347656 15.421875 3.953125 16.972656 3.871094 18.558594 L 5.761719 18.558594 C 6.113281 18.558594 6.402344 18.84375 6.402344 19.199219 C 6.402344 19.554688 6.113281 19.839844 5.761719 19.839844 L 3.859375 19.839844 C 3.949219 21.5 4.378906 23.128906 5.128906 24.625 C 5.136719 24.636719 5.148438 24.648438 5.15625 24.660156 C 5.175781 24.699219 5.214844 24.765625 5.214844 24.765625 L 6.683594 23.789062 C 6.828125 23.695312 7 23.660156 7.167969 23.691406 C 7.332031 23.726562 7.480469 23.824219 7.574219 23.964844 C 7.667969 24.105469 7.703125 24.28125 7.667969 24.445312 C 7.636719 24.613281 7.535156 24.757812 7.394531 24.851562 L 5.476562 26.132812 C 5.371094 26.199219 5.25 26.238281 5.121094 26.238281 C 5.113281 26.238281 5.101562 26.21875 5.089844 26.207031 C 4.816406 26.285156 4.519531 26.167969 4.371094 25.921875 C 3.1875 23.878906 2.5625 21.558594 2.558594 19.199219 C 2.558594 11.789062 8.589844 5.761719 16 5.761719 C 23.410156 5.761719 29.441406 11.789062 29.441406 19.199219 C 29.441406 21.550781 28.8125 23.871094 27.628906 25.921875 M 27.628906 25.921875 "/>
</svg>

<svg role="img" viewBox="0 0 32 32" height="32" width="32" xmlns="http://www.w3.org/2000/svg"><path d="M16 4.48c-8.117 0-14.719 6.602-14.719 14.72 0 2.198.438 4.19 1.313 6.062.043.086.082.172.125.258.058.117.117.238.18.355.238.46.488.918.777 1.355.117.18.316.29.535.29h23.578c.219 0 .418-.11.535-.29.29-.437.54-.894.778-1.355.062-.117.12-.238.18-.355.042-.086.081-.172.124-.258.875-1.871 1.313-3.864 1.313-6.063C30.719 11.082 24.117 4.48 16 4.48m3.84 20.48h-7.68a.641.641 0 0 1 0-1.28h7.68a.641.641 0 0 1 0 1.28m3.414-9.276-5.977 3.504c0 .003.004.007.004.011a1.282 1.282 0 0 1-2.562 0 1.279 1.279 0 0 1 1.902-1.113l5.98-3.504c.305-.18.7-.078.88.227a.638.638 0 0 1-.227.875m4.375 10.238a.647.647 0 0 1-.555.316.385.385 0 0 1-.094-.011.426.426 0 0 1-.101.011.67.67 0 0 1-.356-.105l-1.918-1.281a.637.637 0 0 1-.18-.887.64.64 0 0 1 .891-.176l1.477.984a.426.426 0 0 1 .023-.043c0-.039 0-.074.028-.066h.008a12.215 12.215 0 0 0 1.289-4.824h-1.903a.64.64 0 0 1 0-1.281h1.89a12.057 12.057 0 0 0-1.269-4.801c-.015-.028-.039-.051-.054-.082l-1.508.93a.64.64 0 0 1-.883-.215.642.642 0 0 1 .211-.88l1.54-.94a3.12 3.12 0 0 1-.126-.22 12.179 12.179 0 0 0-3.637-3.468c-.023-.016-.054-.031-.078-.047l-.926 1.676a.643.643 0 0 1-.867.25.638.638 0 0 1-.25-.871l.918-1.664-.047-.024a12.004 12.004 0 0 0-4.515-1.129v1.887a.64.64 0 0 1-.64.64.64.64 0 0 1-.638-.64V7.074c-1.746.09-3.39.547-4.867 1.297-.05.035-.105.066-.16.094l.984 1.594a.635.635 0 0 1-.543.972.646.646 0 0 1-.546-.3l-.993-1.61c-.043.027-.09.05-.132.078a12.198 12.198 0 0 0-3.461 3.664l1.597.867a.639.639 0 1 1-.61 1.125l-1.597-.867a12.052 12.052 0 0 0-1.16 4.57h1.89a.64.64 0 0 1 0 1.282H3.86c.09 1.66.52 3.289 1.27 4.785.008.012.02.023.027.035.02.04.059.106.059.106l1.469-.977a.64.64 0 0 1 .89.176.638.638 0 0 1-.18.887l-1.917 1.28a.67.67 0 0 1-.356.106c-.008 0-.02-.02-.031-.031a.636.636 0 0 1-.719-.285 13.463 13.463 0 0 1-1.812-6.723c0-7.41 6.03-13.437 13.441-13.437 7.41 0 13.441 6.027 13.441 13.437 0 2.352-.628 4.672-1.812 6.723m0 0"/></svg>
